X: 2042
T: Zevki Çoktur
C: Şakir Ağa
O: Turkey
F: http://compmusic.upf.edu/node/140
N: mahur--sarki--sarkidevrirevani--zevki_coktur--sakir_aga
N: makam= mahur
N: form= sarki
N: usul= sarkidevrirevani = 13/4
M: 13/4
L: 1/16
K: C ^9/8f   
Q: 1/4=72
%%MIDI tuningsystem comma53
g4 a8 z2ga g2f2 e4 d4 d3=f e2d2 c2B2 e2dc c4 z4  | \
w:   | 
g4 g3f e2fg f2g4fe d4 e2=fg e3d ^c2d2 c2d2 e2^9/8f2 agfe d4  | 
w:   | 
e2f2 g2fa g4 g2c4d2 e2=f2 g2a2 a2gf g2fe f2ed e2dc d2cB dcBA  | 
w:   | 
G4 c8 c2B4AG A3/2c/BA AGGF G4 G2g2 =fed^c _7/8Bcde c2d6  | 
w:   | 
d4 e8 e2de d2^c2 _7/8B4 A4 A3c =B2A2 G2F2 B2AG G4 z4  | \
w:   | 
d4 d3^c B2cd c2d4c2 d4 e2fg e3d c2d2 e2f2 agfe d4 e2f2  | 
w:   | 
g2fa g4 g2c4d2 e2=f2 g2a2 a2gf g2fe f2ed e2dc d2cB dcBA G4  | 
w:   | 
c8 c2B4AG A3/2c/BA AGGF G6_7/8B2 AGFG FGAB G2A6 G4  | 
w:   | 
A8 A2_7/8B2 B^cBA G4 d4 c2d2 dedc BAB2 cde2 dcBA G4 G4  | 
w:   | 
c8 c2B4AG A3/2c/BA AGGF G6(3AGA G8 z8 |
w:   | 


